icons/svgs/user-group-solid.svg

<svg width="24" height="24" viewBox="0 0 24 24" fill="none" xmlns="http://www.w3.org/2000/svg">
<path d="M3.6 7.00729C3.6 5.2469 4.5 3.60387 6 2.70411C7.4625 1.80436 9.3 1.80436 10.8 2.70411C12.2625 3.60387 13.2 5.2469 13.2 7.00729C13.2 8.8068 12.2625 10.4498 10.8 11.3496C9.3 12.2493 7.4625 12.2493 6 11.3496C4.5 10.4498 3.6 8.8068 3.6 7.00729ZM0 20.8948C0 17.022 2.9625 13.8924 6.675 13.8924H10.0875C13.8 13.8924 16.8 17.022 16.8 20.8948C16.8 21.5207 16.275 22.0293 15.675 22.0293H1.0875C0.4875 22.0293 0 21.5207 0 20.8948ZM22.8375 22.0293H17.6625C17.85 21.6772 18 21.2469 18 20.7775V20.4645C18 18.1173 16.95 15.9657 15.375 14.5574C15.45 14.5574 15.525 14.5183 15.6375 14.5183H17.925C21.2625 14.5183 24 17.374 24 20.8557C24 21.5207 23.475 22.0293 22.8375 22.0293ZM16.2 12.0146C15.0375 12.0146 13.9875 11.5452 13.2 10.7628C13.95 9.70656 14.4 8.4156 14.4 7.00729C14.4 5.99018 14.1375 4.97306 13.6875 4.11243C14.4 3.60387 15.2625 3.25179 16.2 3.25179C18.4875 3.25179 20.4 5.2469 20.4 7.63321C20.4 10.0586 18.4875 12.0146 16.2 12.0146Z" fill="black"/>
</svg>

<svg xmlns="http://www.w3.org/2000/svg" width="24" height="24" fill="currentColor" class="icon-user-group-solid" viewBox="0 0 24 24">
  <mask id="a" width="24" height="21" x="0" y="2" maskUnits="userSpaceOnUse" style="mask-type:alpha">
    <path d="M3.6 7.007c0-1.76.9-3.403 2.4-4.303 1.463-.9 3.3-.9 4.8 0a5.09 5.09 0 0 1 2.4 4.303c0 1.8-.937 3.443-2.4 4.343-1.5.9-3.338.9-4.8 0-1.5-.9-2.4-2.543-2.4-4.343M0 20.895c0-3.873 2.963-7.003 6.675-7.003h3.413c3.712 0 6.712 3.13 6.712 7.003 0 .626-.525 1.134-1.125 1.134H1.088c-.6 0-1.088-.508-1.088-1.134m22.838 1.134h-5.175c.187-.352.337-.782.337-1.251v-.313a8 8 0 0 0-2.625-5.908c.075 0 .15-.039.262-.039h2.288c3.337 0 6.075 2.856 6.075 6.338a1.16 1.16 0 0 1-1.163 1.173M16.2 12.015a4.23 4.23 0 0 1-3-1.252 6.46 6.46 0 0 0 1.2-3.756 6.3 6.3 0 0 0-.713-2.895c.713-.508 1.576-.86 2.513-.86 2.288 0 4.2 1.995 4.2 4.381 0 2.426-1.912 4.382-4.2 4.382"/>
  </mask>
  <g mask="url(#a)">
    <path d="M0 0h24v24H0z"/>
  </g>
</svg>
